X: 16
T:Leapfrog
% Nottingham Music Database
P:(ABB)4
S:Bledington
M:4/4
L:1/4
K:Bb
F|"Bb"B3/2B/2 "Eb"Bc|"Bb"B2 "F7"FF|"Bb"DE "Eb"FG|"Bb"F2 "F7"FF|\
"Bb"B3/2B/2 "Eb"Bc|"Bb"B2 "F7"FF|"Bb"DE "Eb"FG|
"Bb"F2 "F7"FF|"Bb"B3/2B/2 "Eb"Bc|"Bb"B2 BB|"C7"AB cd|"F7"c2 c2|\
"Bb"B/2c/2d/2c/2 Bf/2e/2|"F7"dc "Bb"B|:
c|"Bb"dd "Gm"d/2e/2f/2d/2|"Cm"ec "F7"c2|"Bb"dd/2c/2 Bd|\
"C7""Eb"c/2B/2A/2G/2 "F7""F"F2|
"Bb""Gm"BA/2G/2 F"f"B|"Eb"cB/2A/2 "F"Bc|"Gm"dc/2B/2 "F7/a"A/2B/2c/2A/2|\
"Bb"B2 B:|
F|"Bb"B3/2B/2 "Eb"Bc|"Bb"B2 "F7"FF|"Bb"DE "Eb"FG|"Bb"F2 "F7"FF|\
"Bb"B3/2B/2 "Eb"Bc|"Bb"B2 "F7"FF|"Bb"DE "Eb"FG|
"Bb"F2 "F7"FF|"Bb"B3/2B/2 "Eb"Bc|"Bb"B2 BB|"C7"AB cd|"F7"c2 c2|\
"Bb"B/2c/2d/2c/2 Bf/2e/2|"F7"dc "Bb"B|:
c|"Bb"dd "Gm"d/2e/2f/2d/2|"Cm"ec "F7"c2|"Bb"dd/2c/2 Bd|\
"C7""Eb"c/2B/2A/2G/2 "F7""F"F2|
"Bb""Gm"BA/2G/2 F"f"B|"Eb"cB/2A/2 "F"Bc|"Gm"dc/2B/2 "F7/a"A/2B/2c/2A/2|\
"Bb"B2 B:|
F|"Bb"B3/2B/2 "Eb"Bc|"Bb"B2 "F7"FF|"Bb"DE "Eb"FG|"Bb"F2 "F7"FF|\
"Bb"B3/2B/2 "Eb"Bc|"Bb"B2 "F7"FF|"Bb"DE "Eb"FG|
"Bb"F2 "F7"FF|"Bb"B3/2B/2 "Eb"Bc|"Bb"B2 BB|"C7"AB cd|"F7"c2 c2|\
"Bb"B/2c/2d/2c/2 Bf/2e/2|"F7"dc "Bb"B|:
c|"Bb"dd "Gm"d/2e/2f/2d/2|"Cm"ec "F7"c2|"Bb"dd/2c/2 Bd|\
"C7""Eb"c/2B/2A/2G/2 "F7""F"F2|
"Bb""Gm"BA/2G/2 F"f"B|"Eb"cB/2A/2 "F"Bc|"Gm"dc/2B/2 "F7/a"A/2B/2c/2A/2|\
"Bb"B2 B:|
F|"Bb"B3/2B/2 "Eb"Bc|"Bb"B2 "F7"FF|"Bb"DE "Eb"FG|"Bb"F2 "F7"FF|\
"Bb"B3/2B/2 "Eb"Bc|"Bb"B2 "F7"FF|"Bb"DE "Eb"FG|
"Bb"F2 "F7"FF|"Bb"B3/2B/2 "Eb"Bc|"Bb"B2 BB|"C7"AB cd|"F7"c2 c2|\
"Bb"B/2c/2d/2c/2 Bf/2e/2|"F7"dc "Bb"B|:
c|"Bb"dd "Gm"d/2e/2f/2d/2|"Cm"ec "F7"c2|"Bb"dd/2c/2 Bd|\
"C7""Eb"c/2B/2A/2G/2 "F7""F"F2|
"Bb""Gm"BA/2G/2 F"f"B|"Eb"cB/2A/2 "F"Bc|"Gm"dc/2B/2 "F7/a"A/2B/2c/2A/2|\
"Bb"B2 B:|

